%
(Header)
(Generated by gcodetools from Inkscape.)
(Using default header. To add your own header create file "header" in the output dir.)
M3
(Header end.)
G21 (All units in mm)

(Start cutting path id: path20)
(Change tool to Default tool)

G00 Z5.000000
G00 X7.374590 Y78.711440

G01 Z-1.000000 F100.0(Penetrate)
G01 X7.374590 Y179.211439 Z-1.000000 F400.000000
G01 X107.874580 Y179.211439 Z-1.000000
G01 X208.374580 Y179.211439 Z-1.000000
G01 X208.374580 Y78.711440 Z-1.000000
G01 X208.374580 Y-21.788560 Z-1.000000
G01 X107.874580 Y-21.788560 Z-1.000000
G01 X7.374590 Y-21.788560 Z-1.000000
G01 X7.374590 Y78.711440 Z-1.000000
G00 Z5.000000

(End cutting path id: path20)


(Start cutting path id: path20)
(Change tool to Default tool)

G00 Z5.000000
G00 X27.374590 Y38.711440

G01 Z-1.000000 F100.0(Penetrate)
G01 X27.374590 Y98.211440 Z-1.000000 F400.000000
G01 X17.874590 Y98.211440 Z-1.000000
G01 X8.374590 Y98.211440 Z-1.000000
G01 X8.374590 Y38.711440 Z-1.000000
G01 X8.374590 Y-20.788560 Z-1.000000
G01 X17.874590 Y-20.788560 Z-1.000000
G01 X27.374590 Y-20.788560 Z-1.000000
G01 X27.374590 Y38.711440 Z-1.000000
G00 Z5.000000

(End cutting path id: path20)


(Start cutting path id: path20)
(Change tool to Default tool)

G00 Z5.000000
G00 X97.374593 Y38.711440

G01 Z-1.000000 F100.0(Penetrate)
G01 X97.374593 Y98.211440 Z-1.000000 F400.000000
G01 X62.874590 Y98.211440 Z-1.000000
G01 X28.374590 Y98.211440 Z-1.000000
G01 X28.374590 Y38.711440 Z-1.000000
G01 X28.374590 Y-20.788560 Z-1.000000
G01 X62.874590 Y-20.788560 Z-1.000000
G01 X97.374593 Y-20.788560 Z-1.000000
G01 X97.374593 Y38.711440 Z-1.000000
G00 Z5.000000

(End cutting path id: path20)


(Start cutting path id: path20)
(Change tool to Default tool)

G00 Z5.000000
G00 X127.374580 Y63.711440

G01 Z-1.000000 F100.0(Penetrate)
G01 X127.374580 Y88.211440 Z-1.000000 F400.000000
G01 X112.874580 Y88.211440 Z-1.000000
G01 X98.374593 Y88.211440 Z-1.000000
G01 X98.374593 Y63.711440 Z-1.000000
G01 X98.374593 Y39.211440 Z-1.000000
G01 X112.874580 Y39.211440 Z-1.000000
G01 X127.374580 Y39.211440 Z-1.000000
G01 X127.374580 Y63.711440 Z-1.000000
G00 Z5.000000

(End cutting path id: path20)


(Start cutting path id: path20)
(Change tool to Default tool)

G00 Z5.000000
G00 X177.374580 Y63.711440

G01 Z-1.000000 F100.0(Penetrate)
G01 X177.374580 Y88.211440 Z-1.000000 F400.000000
G01 X152.874580 Y88.211440 Z-1.000000
G01 X128.374580 Y88.211440 Z-1.000000
G01 X128.374580 Y63.711440 Z-1.000000
G01 X128.374580 Y39.211440 Z-1.000000
G01 X152.874580 Y39.211440 Z-1.000000
G01 X177.374580 Y39.211440 Z-1.000000
G01 X177.374580 Y63.711440 Z-1.000000
G00 Z5.000000

(End cutting path id: path20)


(Start cutting path id: path20)
(Change tool to Default tool)

G00 Z5.000000
G00 X207.374580 Y98.711440

G01 Z-1.000000 F100.0(Penetrate)
G01 X207.374580 Y158.211439 Z-1.000000 F400.000000
G01 X192.874580 Y158.211439 Z-1.000000
G01 X178.374580 Y158.211439 Z-1.000000
G01 X178.374580 Y98.711440 Z-1.000000
G01 X178.374580 Y39.211440 Z-1.000000
G01 X192.874580 Y39.211440 Z-1.000000
G01 X207.374580 Y39.211440 Z-1.000000
G01 X207.374580 Y98.711440 Z-1.000000
G00 Z5.000000

(End cutting path id: path20)


(Start cutting path id: path20)
(Change tool to Default tool)

G00 Z5.000000
G00 X177.374580 Y123.711439

G01 Z-1.000000 F100.0(Penetrate)
G01 X177.374580 Y158.211439 Z-1.000000 F400.000000
G01 X152.874580 Y158.211439 Z-1.000000
G01 X128.374580 Y158.211439 Z-1.000000
G01 X128.374580 Y123.711439 Z-1.000000
G01 X128.374580 Y89.211440 Z-1.000000
G01 X152.874580 Y89.211440 Z-1.000000
G01 X177.374580 Y89.211440 Z-1.000000
G01 X177.374580 Y123.711439 Z-1.000000
G00 Z5.000000

(End cutting path id: path20)


(Start cutting path id: path20)
(Change tool to Default tool)

G00 Z5.000000
G00 X127.374580 Y123.711439

G01 Z-1.000000 F100.0(Penetrate)
G01 X127.374580 Y158.211439 Z-1.000000 F400.000000
G01 X112.874580 Y158.211439 Z-1.000000
G01 X98.374593 Y158.211439 Z-1.000000
G01 X98.374593 Y123.711439 Z-1.000000
G01 X98.374593 Y89.211440 Z-1.000000
G01 X112.874580 Y89.211440 Z-1.000000
G01 X127.374580 Y89.211440 Z-1.000000
G01 X127.374580 Y123.711439 Z-1.000000
G00 Z5.000000

(End cutting path id: path20)


(Start cutting path id: path20)
(Change tool to Default tool)

G00 Z5.000000
G00 X97.374593 Y108.711444

G01 Z-1.000000 F100.0(Penetrate)
G01 X97.374593 Y118.211443 Z-1.000000 F400.000000
G01 X77.874590 Y118.211443 Z-1.000000
G01 X58.374590 Y118.211443 Z-1.000000
G01 X58.374590 Y108.711444 Z-1.000000
G01 X58.374590 Y99.211440 Z-1.000000
G01 X77.874590 Y99.211440 Z-1.000000
G01 X97.374593 Y99.211440 Z-1.000000
G01 X97.374593 Y108.711444 Z-1.000000
G00 Z5.000000

(End cutting path id: path20)


(Start cutting path id: path20)
(Change tool to Default tool)

G00 Z5.000000
G00 X97.374593 Y138.711439

G01 Z-1.000000 F100.0(Penetrate)
G01 X97.374593 Y158.211439 Z-1.000000 F400.000000
G01 X77.874590 Y158.211439 Z-1.000000
G01 X58.374590 Y158.211439 Z-1.000000
G01 X58.374590 Y138.711439 Z-1.000000
G01 X58.374590 Y119.211443 Z-1.000000
G01 X77.874590 Y119.211443 Z-1.000000
G01 X97.374593 Y119.211443 Z-1.000000
G01 X97.374593 Y138.711439 Z-1.000000
G00 Z5.000000

(End cutting path id: path20)


(Start cutting path id: path20)
(Change tool to Default tool)

G00 Z5.000000
G00 X97.374593 Y168.711439

G01 Z-1.000000 F100.0(Penetrate)
G01 X97.374593 Y178.211439 Z-1.000000 F400.000000
G01 X52.874590 Y178.211439 Z-1.000000
G01 X8.374590 Y178.211439 Z-1.000000
G01 X8.374590 Y168.711439 Z-1.000000
G01 X8.374590 Y159.211439 Z-1.000000
G01 X52.874590 Y159.211439 Z-1.000000
G01 X97.374593 Y159.211439 Z-1.000000
G01 X97.374593 Y168.711439 Z-1.000000
G00 Z5.000000

(End cutting path id: path20)


(Start cutting path id: path20)
(Change tool to Default tool)

G00 Z5.000000
G00 X57.374590 Y138.711439

G01 Z-1.000000 F100.0(Penetrate)
G01 X57.374590 Y158.211439 Z-1.000000 F400.000000
G01 X42.874590 Y158.211439 Z-1.000000
G01 X28.374590 Y158.211439 Z-1.000000
G01 X28.374590 Y138.711439 Z-1.000000
G01 X28.374590 Y119.211443 Z-1.000000
G01 X42.874590 Y119.211443 Z-1.000000
G01 X57.374590 Y119.211443 Z-1.000000
G01 X57.374590 Y138.711439 Z-1.000000
G00 Z5.000000

(End cutting path id: path20)


(Start cutting path id: path20)
(Change tool to Default tool)

G00 Z5.000000
G00 X57.374590 Y108.711444

G01 Z-1.000000 F100.0(Penetrate)
G01 X57.374590 Y118.211443 Z-1.000000 F400.000000
G01 X42.874590 Y118.211443 Z-1.000000
G01 X28.374590 Y118.211443 Z-1.000000
G01 X28.374590 Y108.711444 Z-1.000000
G01 X28.374590 Y99.211440 Z-1.000000
G01 X42.874590 Y99.211440 Z-1.000000
G01 X57.374590 Y99.211440 Z-1.000000
G01 X57.374590 Y108.711444 Z-1.000000
G00 Z5.000000

(End cutting path id: path20)


(Start cutting path id: path20)
(Change tool to Default tool)

G00 Z5.000000
G00 X27.374590 Y128.711439

G01 Z-1.000000 F100.0(Penetrate)
G01 X27.374590 Y158.211439 Z-1.000000 F400.000000
G01 X17.874590 Y158.211439 Z-1.000000
G01 X8.374590 Y158.211439 Z-1.000000
G01 X8.374590 Y128.711439 Z-1.000000
G01 X8.374590 Y99.211440 Z-1.000000
G01 X17.874590 Y99.211440 Z-1.000000
G01 X27.374590 Y99.211440 Z-1.000000
G01 X27.374590 Y128.711439 Z-1.000000
G00 Z5.000000

(End cutting path id: path20)


(Start cutting path id: path20)
(Change tool to Default tool)

G00 Z5.000000
G00 X207.374580 Y168.711439

G01 Z-1.000000 F100.0(Penetrate)
G01 X207.374580 Y178.211439 Z-1.000000 F400.000000
G01 X152.874580 Y178.211439 Z-1.000000
G01 X98.374593 Y178.211439 Z-1.000000
G01 X98.374593 Y168.711439 Z-1.000000
G01 X98.374593 Y159.211439 Z-1.000000
G01 X152.874580 Y159.211439 Z-1.000000
G01 X207.374580 Y159.211439 Z-1.000000
G01 X207.374580 Y168.711439 Z-1.000000
G00 Z5.000000

(End cutting path id: path20)


(Start cutting path id: path20)
(Change tool to Default tool)

G00 Z5.000000
G00 X207.374580 Y8.711440

G01 Z-1.000000 F100.0(Penetrate)
G01 X207.374580 Y38.211440 Z-1.000000 F400.000000
G01 X192.874580 Y38.211440 Z-1.000000
G01 X178.374580 Y38.211440 Z-1.000000
G01 X178.374580 Y8.711440 Z-1.000000
G01 X178.374580 Y-20.788560 Z-1.000000
G01 X192.874580 Y-20.788560 Z-1.000000
G01 X207.374580 Y-20.788560 Z-1.000000
G01 X207.374580 Y8.711440 Z-1.000000
G00 Z5.000000

(End cutting path id: path20)


(Start cutting path id: path20)
(Change tool to Default tool)

G00 Z5.000000
G00 X177.374580 Y8.711440

G01 Z-1.000000 F100.0(Penetrate)
G01 X177.374580 Y38.211440 Z-1.000000 F400.000000
G01 X137.874580 Y38.211440 Z-1.000000
G01 X98.374593 Y38.211440 Z-1.000000
G01 X98.374593 Y8.711440 Z-1.000000
G01 X98.374593 Y-20.788560 Z-1.000000
G01 X137.874580 Y-20.788560 Z-1.000000
G01 X177.374580 Y-20.788560 Z-1.000000
G01 X177.374580 Y8.711440 Z-1.000000
G00 Z5.000000

(End cutting path id: path20)


(Footer)
M5
G00 X0.0000 Y0.0000
M2
(Using default footer. To add your own footer create file "footer" in the output dir.)
(end)
%